X: 10733
T: The DUSKY NIGHT
O: Hunting song.
Q: "Quickly."
%R: jig, march
B: W. Hamilton "Universal Tune-Book" Vol. 1 Glasgow 1844 p.73 #3
S: http://imslp.org/wiki/Hamilton's_Universal_Tune-Book_(Various)
Z: 2016 John Chambers <jc:trillian.mit.edu>
M: 6/8
L: 1/8
K: F
%%stretchstaff 0
% - - - - - - - - - - - - - - - - - - - - - - - - -
c |\
f2f c2B | A>GA F2c | d2c B2A | (A3 G2)G |\
c2c d2d | e>de c2c | f2f g2g | a>ga f2c |\
d>ef g>ab | c>de f2c |
d2B c>Bc | F3 zzF/F/ |\
c2c c2c | c3 zzc/c/ | f2f f>ga | g3 zzc/c/ |\
d>ef g>ab | a>gf e>dc | d2B c2c | F3 zz |]
% - - - - - - - - - - - - - - - - - - - - - - - - -

%%sep 1 1 500
%%sep 1 1 500

